X: 32463
T: Pitlochry High School Centenary, The
R: jig
M: 6/8
K: Dmajor
d2 e fed|gBB BAB|d2e fed|gBB cde|
d2e fed|gBB BAB|AcA dAe|Aee edc:|
|:d2a agf|g3 gfe|d2a agf|ecA Ace|
d2a agf|g3 g<gf|eee efd|ecA Ace:|
|:dAe AfA|gAf AeA|dAe AfA|gBB cde|
dAe AfA|gAf AeA|eaa eee|gaa age:|
M:9/8
Ada aAd g3|Adf fAd e3 cde|
M:6/8
Ada aAd|g3 g2f|e3 efd|ecA Ace:|

